X:125
T:Staines Morris
M:4/4
L:1/8
K:F
"Dm" A2 d2 "G" =B2 "A" ^c2 | "Dm" d2 =c_B "F" A3 B | "Am" cdcB "Dm" A2 GF | "C" EDEF "Dm" D3 z :|
E | "Dm" FGAB A2 GF | "Am" EDEF "Dm" D3 E | "Dm" FGAB A2 GF | "C" EDEF "Dm" D3 E ||
|: "F" F2 FF "C" C2 C2 | "Dm" DEFG "F" A3 B | "Am" cdcB "Dm" A2 GF | [1 "C" ED"Am"EF "Dm" D3 E :| [2 "C"ED"Am"EF "Dm" D4 |]
%
%
